documentation/public/assets/images/topbar.svg

<svg width="417" height="64" viewBox="0 0 417 64" fill="none" xmlns="http://www.w3.org/2000/svg">
<mask id="path-1-inside-1_823_8970" fill="white">
<path d="M0 0H417V64H0V0Z"/>
</mask>
<path d="M0 0H417V64H0V0Z" fill="white"/>
<path d="M42.0001 37.3801H30.0001C29.7926 37.3801 29.6201 37.2103 29.6201 37.0001C29.6201 36.7863 29.7863 36.6201 30.0001 36.6201H42.0001C42.2077 36.6201 42.3801 36.7899 42.3801 37.0001C42.3801 37.214 42.214 37.3801 42.0001 37.3801ZM42.0001 32.3801H30.0001C29.7926 32.3801 29.6201 32.2103 29.6201 32.0001C29.6201 31.7863 29.7863 31.6201 30.0001 31.6201H42.0001C42.2077 31.6201 42.3801 31.7899 42.3801 32.0001C42.3801 32.214 42.214 32.3801 42.0001 32.3801ZM42.0001 27.3801H30.0001C29.7926 27.3801 29.6201 27.2103 29.6201 27.0001C29.6201 26.7863 29.7863 26.6201 30.0001 26.6201H42.0001C42.2077 26.6201 42.3801 26.7899 42.3801 27.0001C42.3801 27.214 42.214 27.3801 42.0001 27.3801Z" fill="#0F67F5" stroke="#757575"/>
<g clip-path="url(#clip0_823_8970)">
<path d="M123.072 40.9554C123.069 41.1019 123.008 41.2413 122.902 41.3433C122.796 41.4452 122.654 41.5015 122.506 41.4998H98.0704C97.922 41.4998 97.7796 41.4412 97.6747 41.3368C97.5697 41.2324 97.5107 41.0908 97.5107 40.9431C97.5107 34.2136 103.415 28.7749 110.291 28.7749C117.168 28.7749 123.072 34.183 123.072 40.9125V40.9554Z" fill="#F74E4E"/>
<path d="M120.55 27.5082C121.939 27.5082 123.065 26.388 123.065 25.0061C123.065 23.6242 121.939 22.5039 120.55 22.5039C119.16 22.5039 118.034 23.6242 118.034 25.0061C118.034 26.388 119.16 27.5082 120.55 27.5082Z" fill="#F74E4E"/>
<path d="M85.6589 40.9367C85.6589 41.086 85.5993 41.2291 85.4932 41.3347C85.3871 41.4402 85.2432 41.4995 85.0931 41.4995H64.4399C64.2898 41.4995 64.1459 41.4402 64.0398 41.3347C63.9336 41.2291 63.874 41.086 63.874 40.9367C63.8778 40.8257 63.9118 40.7179 63.9724 40.6247L74.2929 22.7547C74.3477 22.6801 74.4187 22.6187 74.5007 22.5752C74.5828 22.5318 74.6736 22.5074 74.7665 22.5039C74.8591 22.5045 74.9501 22.5276 75.0316 22.5714C75.1131 22.6151 75.1826 22.6781 75.2339 22.7547L85.5605 40.6247C85.624 40.7166 85.6583 40.8252 85.6589 40.9367Z" fill="#FFB71B"/>
<path d="M151.734 22.5039C151.632 22.5048 151.532 22.5392 151.451 22.6018L139.15 31.6683C139.067 31.7304 138.965 31.7628 138.861 31.7601C138.769 31.7618 138.678 31.734 138.603 31.6805H138.566L126.37 22.6324C126.291 22.5751 126.196 22.5431 126.099 22.5406C125.956 22.5485 125.823 22.6121 125.727 22.7175C125.632 22.8229 125.582 22.9616 125.588 23.1034V40.9428C125.585 41.0127 125.596 41.0826 125.62 41.1484C125.644 41.2143 125.68 41.2748 125.728 41.3265C125.775 41.3782 125.832 41.4201 125.896 41.4498C125.96 41.4795 126.029 41.4964 126.099 41.4995H151.734C151.877 41.4932 152.011 41.4311 152.108 41.3269C152.204 41.2226 152.256 41.0846 152.251 40.9428V23.0667C152.256 22.9243 152.205 22.7856 152.108 22.6804C152.011 22.5752 151.877 22.5118 151.734 22.5039V22.5039Z" fill="#4FBF5E"/>
<path d="M98.2 22.5349H95.2417C95.1677 22.5333 95.0973 22.503 95.0456 22.4504C94.9939 22.3978 94.9649 22.3271 94.9649 22.2535V18.0629C94.9649 17.9884 94.9501 17.9147 94.9213 17.8461C94.8924 17.7774 94.8502 17.715 94.797 17.6627C94.7438 17.6104 94.6807 17.569 94.6113 17.5411C94.542 17.5132 94.4677 17.4992 94.3929 17.5H88.7406C88.5906 17.5 88.4467 17.5593 88.3405 17.6649C88.2344 17.7704 88.1748 17.9136 88.1748 18.0629V40.9433C88.1764 41.0915 88.2368 41.2331 88.3427 41.3373C88.4486 41.4415 88.5916 41.5 88.7406 41.5H94.3929C94.5419 41.5 94.6849 41.4415 94.7909 41.3373C94.8968 41.2331 94.9571 41.0915 94.9588 40.9433V29.5642C94.9579 29.5276 94.9645 29.4911 94.978 29.457C94.9916 29.4229 95.0118 29.3918 95.0376 29.3656C95.0634 29.3394 95.0942 29.3186 95.1282 29.3044C95.1622 29.2901 95.1987 29.2828 95.2355 29.2828H98.2C98.3501 29.2828 98.494 29.2235 98.6002 29.118C98.7063 29.0124 98.7659 28.8693 98.7659 28.72V23.0978C98.7659 22.9485 98.7063 22.8053 98.6002 22.6998C98.494 22.5942 98.3501 22.5349 98.2 22.5349Z" fill="#71C5FF"/>
</g>
<rect x="258" y="16" width="99" height="32" rx="4" fill="#0F67F5"/>
<path d="M288.656 29.1172C288.609 28.683 288.414 28.3449 288.069 28.103C287.728 27.861 287.284 27.7401 286.737 27.7401C286.352 27.7401 286.023 27.7981 285.747 27.9141C285.472 28.0301 285.262 28.1875 285.116 28.3864C284.97 28.5852 284.896 28.8123 284.892 29.0675C284.892 29.2796 284.94 29.4635 285.036 29.6193C285.136 29.7751 285.27 29.9077 285.439 30.017C285.608 30.1231 285.795 30.2126 286.001 30.2855C286.206 30.3584 286.414 30.4197 286.622 30.4695L287.577 30.7081C287.961 30.7976 288.331 30.9186 288.686 31.071C289.044 31.2235 289.363 31.4157 289.645 31.6477C289.93 31.8797 290.156 32.1598 290.321 32.4879C290.487 32.8161 290.57 33.2005 290.57 33.6413C290.57 34.2379 290.417 34.7633 290.112 35.2173C289.808 35.6681 289.367 36.0211 288.79 36.2763C288.217 36.5282 287.522 36.6541 286.707 36.6541C285.915 36.6541 285.227 36.5315 284.644 36.2862C284.064 36.041 283.61 35.683 283.282 35.2124C282.957 34.7417 282.781 34.1683 282.755 33.4922H284.569C284.596 33.8468 284.705 34.1418 284.897 34.3771C285.09 34.6125 285.34 34.7881 285.648 34.9041C285.96 35.0201 286.308 35.0781 286.692 35.0781C287.093 35.0781 287.444 35.0185 287.746 34.8991C288.051 34.7765 288.29 34.6075 288.462 34.392C288.634 34.1733 288.722 33.9181 288.725 33.6264C288.722 33.3613 288.644 33.1425 288.492 32.9702C288.339 32.7945 288.126 32.6487 287.85 32.5327C287.579 32.4134 287.26 32.3073 286.896 32.2145L285.737 31.9162C284.899 31.7008 284.236 31.3743 283.749 30.9368C283.265 30.496 283.023 29.911 283.023 29.1818C283.023 28.5819 283.185 28.0566 283.51 27.6058C283.838 27.1551 284.284 26.8054 284.848 26.5568C285.411 26.3049 286.049 26.179 286.762 26.179C287.484 26.179 288.117 26.3049 288.661 26.5568C289.208 26.8054 289.637 27.1518 289.948 27.5959C290.26 28.0367 290.421 28.5438 290.431 29.1172H288.656ZM292.135 36.5V28.8636H293.934V36.5H292.135ZM293.04 27.7798C292.754 27.7798 292.509 27.6854 292.304 27.4964C292.098 27.3042 291.995 27.0739 291.995 26.8054C291.995 26.5336 292.098 26.3033 292.304 26.1143C292.509 25.9221 292.754 25.826 293.04 25.826C293.328 25.826 293.573 25.9221 293.775 26.1143C293.981 26.3033 294.084 26.5336 294.084 26.8054C294.084 27.0739 293.981 27.3042 293.775 27.4964C293.573 27.6854 293.328 27.7798 293.04 27.7798ZM299.106 39.5227C298.46 39.5227 297.905 39.4349 297.441 39.2592C296.977 39.0869 296.604 38.8549 296.322 38.5632C296.04 38.2715 295.845 37.9484 295.735 37.5938L297.356 37.201C297.429 37.3501 297.535 37.4976 297.674 37.6435C297.813 37.7926 298.001 37.9152 298.236 38.0114C298.475 38.1108 298.775 38.1605 299.136 38.1605C299.646 38.1605 300.069 38.0362 300.404 37.7876C300.738 37.5424 300.906 37.138 300.906 36.5746V35.1278H300.816C300.724 35.3134 300.588 35.504 300.409 35.6996C300.233 35.8951 299.999 36.0592 299.708 36.1918C299.419 36.3243 299.056 36.3906 298.619 36.3906C298.032 36.3906 297.5 36.2531 297.023 35.978C296.549 35.6996 296.171 35.2853 295.889 34.7351C295.611 34.1816 295.472 33.4889 295.472 32.657C295.472 31.8184 295.611 31.1108 295.889 30.5341C296.171 29.9541 296.551 29.5149 297.028 29.2166C297.505 28.915 298.037 28.7642 298.624 28.7642C299.071 28.7642 299.439 28.8404 299.728 28.9929C300.019 29.142 300.251 29.3227 300.424 29.5348C300.596 29.7436 300.727 29.9408 300.816 30.1264H300.916V28.8636H302.691V36.6243C302.691 37.2772 302.535 37.8175 302.223 38.245C301.912 38.6726 301.486 38.9924 300.946 39.2045C300.405 39.4167 299.792 39.5227 299.106 39.5227ZM299.121 34.9787C299.502 34.9787 299.827 34.8859 300.095 34.7003C300.364 34.5147 300.568 34.2479 300.707 33.8999C300.846 33.5518 300.916 33.1342 300.916 32.647C300.916 32.1664 300.846 31.7455 300.707 31.3842C300.571 31.023 300.369 30.7429 300.1 30.544C299.835 30.3419 299.509 30.2408 299.121 30.2408C298.72 30.2408 298.385 30.3452 298.117 30.554C297.848 30.7628 297.646 31.0495 297.51 31.4141C297.374 31.7753 297.306 32.1863 297.306 32.647C297.306 33.1143 297.374 33.5237 297.51 33.875C297.649 34.223 297.853 34.4948 298.122 34.6903C298.393 34.8826 298.727 34.9787 299.121 34.9787ZM306.335 32.0256V36.5H304.535V28.8636H306.255V30.1612H306.345C306.52 29.7337 306.8 29.3939 307.185 29.142C307.573 28.8902 308.052 28.7642 308.622 28.7642C309.149 28.7642 309.608 28.8769 309.999 29.1023C310.393 29.3277 310.698 29.6541 310.914 30.0817C311.132 30.5092 311.24 31.0279 311.237 31.6378V36.5H309.437V31.9162C309.437 31.4058 309.304 31.0064 309.039 30.718C308.777 30.4297 308.415 30.2855 307.951 30.2855C307.636 30.2855 307.356 30.3551 307.11 30.4943C306.868 30.6302 306.678 30.8274 306.539 31.0859C306.403 31.3445 306.335 31.6577 306.335 32.0256ZM321.406 33.2884V28.8636H323.206V36.5H321.461V35.1428H321.381C321.209 35.5703 320.926 35.92 320.531 36.1918C320.14 36.4635 319.658 36.5994 319.084 36.5994C318.584 36.5994 318.141 36.4884 317.757 36.2663C317.376 36.041 317.078 35.7145 316.862 35.2869C316.647 34.8561 316.539 34.3357 316.539 33.7259V28.8636H318.339V33.4474C318.339 33.9313 318.471 34.3158 318.736 34.6009C319.002 34.8859 319.35 35.0284 319.78 35.0284C320.046 35.0284 320.302 34.9638 320.551 34.8345C320.8 34.7053 321.003 34.513 321.163 34.2578C321.325 33.9993 321.406 33.6761 321.406 33.2884ZM325.057 39.3636V28.8636H326.826V30.1264H326.931C327.024 29.9408 327.155 29.7436 327.324 29.5348C327.493 29.3227 327.721 29.142 328.01 28.9929C328.298 28.8404 328.666 28.7642 329.113 28.7642C329.703 28.7642 330.235 28.915 330.709 29.2166C331.187 29.5149 331.564 29.9574 331.843 30.544C332.124 31.1274 332.265 31.8433 332.265 32.6918C332.265 33.5303 332.128 34.2429 331.853 34.8295C331.578 35.4162 331.203 35.8636 330.729 36.1719C330.255 36.4801 329.718 36.6342 329.118 36.6342C328.681 36.6342 328.318 36.5613 328.03 36.4155C327.741 36.2696 327.509 36.094 327.334 35.8885C327.161 35.6797 327.027 35.4825 326.931 35.2969H326.856V39.3636H325.057ZM326.821 32.6818C326.821 33.1757 326.891 33.6082 327.03 33.9794C327.173 34.3506 327.377 34.6406 327.642 34.8494C327.91 35.0549 328.235 35.1577 328.616 35.1577C329.014 35.1577 329.347 35.0516 329.616 34.8395C329.884 34.6241 330.086 34.3307 330.222 33.9595C330.361 33.585 330.431 33.1591 330.431 32.6818C330.431 32.2079 330.363 31.7869 330.227 31.419C330.091 31.0511 329.889 30.7628 329.62 30.554C329.352 30.3452 329.017 30.2408 328.616 30.2408C328.232 30.2408 327.905 30.3419 327.637 30.544C327.368 30.7462 327.165 31.0296 327.025 31.3942C326.889 31.7588 326.821 32.188 326.821 32.6818Z" fill="white"/>
<path d="M387.367 39.8549L387.367 39.8548L387.356 39.8503C387.183 39.7764 387.015 39.7036 386.852 39.6318C387.076 39.4594 387.293 39.2773 387.501 39.0862C387.558 39.1105 387.615 39.135 387.673 39.1597C387.862 39.2419 387.952 39.4603 387.87 39.6553C387.811 39.7921 387.668 39.8801 387.53 39.8801H387.5C387.44 39.8801 387.403 39.8711 387.367 39.8549ZM386.494 38.6385C386.273 38.8213 386.044 38.9933 385.805 39.1537C384.254 38.4158 383.263 37.7932 382.746 37.2689L382.744 37.2666C382.55 37.0727 382.472 36.9099 382.443 36.7857C382.414 36.6615 382.425 36.5381 382.468 36.4087C382.563 36.1258 382.787 35.8752 382.978 35.6693L382.994 35.6517C383.296 35.3246 383.715 34.8707 384.049 34.1426C384.39 33.4019 384.63 32.4084 384.63 31.0001C384.63 29.1083 384.2 27.9145 383.459 27.2062C382.718 26.4977 381.774 26.3801 381.01 26.3801C380.245 26.3801 379.301 26.5008 378.56 27.2104C377.82 27.9196 377.39 29.1128 377.39 31.0001C377.39 32.4084 377.63 33.4019 377.971 34.1426C378.305 34.8707 378.724 35.3246 379.027 35.6517L379.043 35.6693C379.233 35.8752 379.458 36.1258 379.552 36.4087C379.595 36.5381 379.606 36.6615 379.577 36.7857C379.548 36.9099 379.47 37.0727 379.277 37.2666C378.757 37.7864 377.755 38.4097 376.197 39.1551C375.963 38.9976 375.737 38.8289 375.52 38.6499C377.142 37.9032 378.014 37.3588 378.495 36.9684L378.926 36.6189L378.543 36.2363L378.535 36.226C378.524 36.2135 378.501 36.187 378.466 36.1573C378.127 35.793 377.689 35.3101 377.324 34.542C376.949 33.7519 376.64 32.6337 376.64 31.0101C376.64 28.5577 377.368 27.2476 378.215 26.537C379.079 25.8123 380.163 25.6301 381.02 25.6301C381.878 25.6301 382.962 25.8101 383.825 26.5335C384.672 27.2426 385.4 28.5524 385.4 31.0101C385.4 32.639 385.091 33.757 384.716 34.5455C384.343 35.33 383.894 35.8147 383.55 36.1827L383.507 36.2266L383.115 36.618L383.544 36.9677C384.031 37.3643 384.903 37.9054 386.494 38.6385ZM381 41.6201C382.779 41.6201 384.446 41.1353 385.877 40.2907C386.144 40.4127 386.423 40.5367 386.714 40.6625C385.074 41.7477 383.11 42.3801 381 42.3801C378.894 42.3801 376.932 41.7494 375.293 40.667C375.583 40.5402 375.86 40.4155 376.127 40.2928C377.557 41.1361 379.223 41.6201 381 41.6201ZM373.775 38.3461C373.552 38.4891 373.38 38.6911 373.271 38.9224C371.624 37.0844 370.62 34.6573 370.62 32.0001C370.62 26.2763 375.276 21.6201 381 21.6201C386.724 21.6201 391.38 26.2763 391.38 32.0001C391.38 34.6428 390.388 37.0578 388.756 38.8921C388.643 38.6646 388.466 38.4676 388.24 38.3297C389.721 36.6371 390.62 34.422 390.62 32.0001C390.62 26.694 386.306 22.3801 381 22.3801C375.694 22.3801 371.38 26.694 371.38 32.0001C371.38 34.4298 372.285 36.6514 373.775 38.3461ZM374.169 39.6519C374.09 39.4689 374.178 39.2416 374.368 39.1594C374.416 39.1388 374.464 39.1182 374.512 39.0978C374.718 39.2861 374.932 39.4656 375.153 39.6356C374.994 39.7065 374.83 39.7783 374.662 39.8511C374.479 39.9302 374.251 39.8417 374.169 39.6519Z" fill="#0F67F5" stroke="#757575"/>
<path d="M417 63H0V65H417V63Z" fill="#EEEEEE" mask="url(#path-1-inside-1_823_8970)"/>
<defs>
<clipPath id="clip0_823_8970">
<rect width="88" height="24" fill="white" transform="translate(64 17.5)"/>
</clipPath>
</defs>
</svg>

<svg width="417" height="64" fill="none" xmlns="http://www.w3.org/2000/svg"><mask id="b" fill="#fff"><path d="M0 0h417v64H0V0Z"/></mask><path d="M0 0h417v64H0V0Z" fill="#fff"/><path d="M42 37.38H30a.38.38 0 0 1-.38-.38c0-.21.17-.38.38-.38h12c.2 0 .38.17.38.38s-.17.38-.38.38Zm0-5H30a.38.38 0 0 1-.38-.38c0-.21.17-.38.38-.38h12c.2 0 .38.17.38.38s-.17.38-.38.38Zm0-5H30a.38.38 0 0 1-.38-.38c0-.21.17-.38.38-.38h12c.2 0 .38.17.38.38s-.17.38-.38.38Z" fill="#0F67F5" stroke="#757575"/><g clip-path="url(#a)"><path d="M123.07 40.96a.55.55 0 0 1-.56.54H98.07a.56.56 0 0 1-.56-.56c0-6.73 5.9-12.17 12.78-12.17 6.88 0 12.78 5.41 12.78 12.14v.05Zm-2.52-13.46a2.5 2.5 0 0 0 2.52-2.5 2.5 2.5 0 0 0-2.52-2.5 2.5 2.5 0 0 0-2.52 2.5 2.5 2.5 0 0 0 2.52 2.5Z" fill="#F74E4E"/><path d="M85.66 40.94a.56.56 0 0 1-.57.56H64.44a.57.57 0 0 1-.57-.56c0-.11.04-.22.1-.32L74.3 22.75a.62.62 0 0 1 .48-.25.57.57 0 0 1 .46.25l10.33 17.87c.06.1.1.2.1.32Z" fill="#FFB71B"/><path d="M151.73 22.5c-.1 0-.2.04-.28.1l-12.3 9.07a.46.46 0 0 1-.29.09.43.43 0 0 1-.26-.08h-.03l-12.2-9.05a.48.48 0 0 0-.27-.09.54.54 0 0 0-.51.56v17.84a.53.53 0 0 0 .5.56h25.64a.54.54 0 0 0 .52-.56V23.07a.54.54 0 0 0-.52-.57Z" fill="#4FBF5E"/><path d="M98.2 22.53h-2.96a.28.28 0 0 1-.28-.28v-4.19a.56.56 0 0 0-.35-.52.57.57 0 0 0-.22-.04h-5.65a.57.57 0 0 0-.57.56v22.88a.56.56 0 0 0 .57.56h5.65a.57.57 0 0 0 .57-.56V29.56a.27.27 0 0 1 .17-.26.28.28 0 0 1 .1-.02h2.97a.57.57 0 0 0 .57-.56V23.1a.56.56 0 0 0-.57-.57Z" fill="#71C5FF"/></g><rect x="258" y="16" width="99" height="32" rx="4" fill="#0F67F5"/><path d="M288.66 29.12a1.36 1.36 0 0 0-.6-1.02 2.25 2.25 0 0 0-1.32-.36c-.39 0-.72.06-1 .17-.27.12-.48.28-.62.48a1.15 1.15 0 0 0-.08 1.23c.1.16.23.29.4.4.17.1.36.2.56.27.2.07.41.13.62.18l.96.24c.38.09.75.2 1.1.36.36.15.68.35.96.58a2.4 2.4 0 0 1 .93 1.99 2.76 2.76 0 0 1-1.78 2.64 5.2 5.2 0 0 1-2.08.37 5.3 5.3 0 0 1-2.07-.36 3.07 3.07 0 0 1-1.36-1.08 3.18 3.18 0 0 1-.52-1.72h1.8a1.55 1.55 0 0 0 1.09 1.41c.31.12.66.18 1.04.18.4 0 .75-.06 1.06-.18.3-.12.54-.3.71-.5.17-.23.26-.48.27-.77a.97.97 0 0 0-.24-.66 1.71 1.71 0 0 0-.64-.44 6.17 6.17 0 0 0-.95-.32l-1.16-.3a4.66 4.66 0 0 1-2-.97 2.26 2.26 0 0 1-.72-1.76c0-.6.17-1.12.49-1.57.33-.45.77-.8 1.34-1.05a4.5 4.5 0 0 1 1.91-.38c.72 0 1.36.12 1.9.38.55.25.98.6 1.29 1.04.31.44.47.94.48 1.52h-1.77Zm3.47 7.38v-7.64h1.8v7.64h-1.8Zm.91-8.72c-.29 0-.53-.1-.74-.28a.91.91 0 0 1-.3-.7c0-.27.1-.5.3-.69.2-.19.45-.28.74-.28s.53.1.73.28c.21.2.31.42.31.7 0 .26-.1.5-.3.69-.2.19-.45.28-.74.28Zm6.07 11.74a4.7 4.7 0 0 1-1.67-.26c-.46-.17-.84-.4-1.12-.7a2.37 2.37 0 0 1-.58-.97l1.62-.39a1.57 1.57 0 0 0 .88.81c.24.1.53.15.9.15.5 0 .93-.12 1.26-.37.34-.25.5-.65.5-1.22v-1.44h-.08c-.1.18-.23.37-.41.57-.18.2-.41.36-.7.5a3.14 3.14 0 0 1-2.69-.21c-.47-.29-.85-.7-1.13-1.25a4.6 4.6 0 0 1-.42-2.08c0-.84.14-1.55.42-2.13a2.92 2.92 0 0 1 3.84-1.54 2.29 2.29 0 0 1 1.09 1.14h.1v-1.27h1.77v7.76c0 .66-.15 1.2-.47 1.63a2.8 2.8 0 0 1-1.27.95 5 5 0 0 1-1.84.32Zm.01-4.54c.38 0 .7-.1.98-.28.26-.19.47-.45.6-.8.15-.35.22-.77.22-1.25s-.07-.9-.21-1.27a1.8 1.8 0 0 0-.61-.84c-.27-.2-.6-.3-.98-.3-.4 0-.74.1-1 .31-.27.21-.47.5-.61.86-.14.37-.2.78-.2 1.24 0 .46.06.87.2 1.23.14.34.34.61.61.81.27.2.6.29 1 .29Zm7.21-2.95v4.47h-1.8v-7.64h1.73v1.3h.09c.17-.43.45-.77.83-1.02.4-.25.87-.38 1.44-.38.53 0 .99.12 1.38.34.4.23.7.55.91.98.22.43.33.95.33 1.56v4.86h-1.8v-4.58c0-.51-.14-.91-.4-1.2a1.4 1.4 0 0 0-1.09-.43c-.31 0-.6.07-.84.2a1.5 1.5 0 0 0-.57.6 2 2 0 0 0-.2.94Zm15.08 1.26v-4.43h1.8v7.64h-1.75v-1.36h-.08c-.17.43-.45.78-.85 1.05-.39.27-.87.4-1.45.4-.5 0-.94-.1-1.32-.32a2.32 2.32 0 0 1-.9-.98 3.47 3.47 0 0 1-.32-1.56v-4.87h1.8v4.59c0 .48.13.87.4 1.15.26.29.61.43 1.04.43a1.65 1.65 0 0 0 1.38-.77c.16-.26.25-.58.25-.97Zm3.65 6.07v-10.5h1.77v1.27h.1c.1-.19.22-.39.4-.6.16-.2.4-.39.68-.54a2.91 2.91 0 0 1 3.83 1.55c.28.59.42 1.3.42 2.15 0 .84-.13 1.55-.4 2.14a2.89 2.89 0 0 1-2.74 1.8c-.44 0-.8-.07-1.09-.21a2.2 2.2 0 0 1-.7-.53 3.3 3.3 0 0 1-.4-.6h-.07v4.07h-1.8Zm1.76-6.68c0 .5.07.93.21 1.3.14.37.35.66.61.87.27.2.6.3.98.3.4 0 .73-.1 1-.31.26-.22.47-.5.6-.88.14-.38.21-.8.21-1.28 0-.47-.07-.9-.2-1.26a1.9 1.9 0 0 0-.61-.87c-.27-.2-.6-.3-1-.3-.39 0-.72.1-.98.3-.27.2-.47.48-.62.84-.13.37-.2.8-.2 1.3Z" fill="#fff"/><path d="M387.37 39.85h-.01l-.5-.22c.22-.17.43-.35.64-.54l.17.07c.2.08.28.3.2.5a.38.38 0 0 1-.34.22h-.03a.3.3 0 0 1-.13-.03Zm-.88-1.21a8.6 8.6 0 0 1-.69.51 11.5 11.5 0 0 1-3.05-1.88c-.2-.2-.28-.36-.3-.48a.68.68 0 0 1 .02-.38c.1-.28.32-.53.5-.74l.02-.02c.3-.33.72-.78 1.06-1.5a7.4 7.4 0 0 0 .58-3.15c0-1.9-.43-3.09-1.17-3.8a3.4 3.4 0 0 0-2.45-.82c-.76 0-1.7.12-2.45.83-.74.71-1.17 1.9-1.17 3.79 0 1.4.24 2.4.58 3.14.33.73.75 1.18 1.06 1.51l.01.02c.2.2.42.46.51.74.05.13.06.25.03.38-.03.12-.11.28-.3.48-.52.52-1.52 1.14-3.08 1.89a8.69 8.69 0 0 1-.68-.51c1.62-.75 2.5-1.3 2.98-1.68l.43-.35-.39-.38v-.01l-.07-.07a6.1 6.1 0 0 1-1.15-1.62 8.1 8.1 0 0 1-.68-3.53c0-2.45.73-3.76 1.57-4.47a4.32 4.32 0 0 1 2.81-.91c.86 0 1.94.18 2.8.9.85.71 1.58 2.02 1.58 4.48a8.1 8.1 0 0 1-.68 3.54 6.11 6.11 0 0 1-1.17 1.63l-.04.05-.4.39.43.35c.5.4 1.36.94 2.95 1.67ZM381 41.62c1.78 0 3.45-.48 4.88-1.33l.83.37a10.32 10.32 0 0 1-11.42 0c.3-.12.57-.24.84-.37a9.56 9.56 0 0 0 4.87 1.33Zm-7.23-3.27c-.22.14-.39.34-.5.57a10.4 10.4 0 1 1 18.1-6.92c.01 2.64-.98 5.06-2.61 6.9a1.38 1.38 0 0 0-.52-.57A9.63 9.63 0 1 0 371.38 32c0 2.43.9 4.65 2.4 6.35Zm.4 1.3a.38.38 0 0 1 .2-.5l.14-.05c.2.19.42.37.64.54l-.49.21a.38.38 0 0 1-.5-.2Z" fill="#0F67F5" stroke="#757575"/><path d="M417 63H0v2h417v-2Z" fill="#EEE" mask="url(#b)"/><defs><clipPath id="a"><path fill="#fff" transform="translate(64 17.5)" d="M0 0h88v24H0z"/></clipPath></defs></svg>
